!!!OTL: Soldatenelend (150), S. 330f
!!!id: T0319
**kern
*clefG2
*k[f#]
*G:
{8g
=1
8g
4b
8b
=2yy
8b
=3
4b
8b
8b
=4
8b
8b
8cc
8b
=5
4a}
8r
=6
{8g
=7
8f#
8a
8a
8dd
=8
4dd
8a
8dd
=9
8dd
8a
8a
8a
=10
4a}
8r
=11
{8dd
=12
8b
8dd
8dd
8dd
=13
8dd
8ee
8ee
8dd
=14
8dd
8b
8cc
8ee
=15
4dd}
8r
=16
{8b
=17
8b
8a
8b
8cc
=18
4dd
8a
8dd
=19
8dd
8a
8a
8a
=20
4a}
4r
==
*-
!!!minrhy: 8
!!!meters: 2/4 ]  ZZ[4
!!!cut: Soldatenelend (150), S. 330f
!!!reg: Luxemburg
!!!trd: Singendes Volk, Esch-Alzette 1937, posth.
!!!rhy1:   X_XX  X_XX  XXXX  X_0
!!!rhy2: X  XXXX  X_XX  XXXX  X_0
!!!key: T0319  08  G 2/4 ]  ZZ[4
!!!mod: HEPTATONIK IONISCH]  AMBITUS[7b
!!!kad: 2252
!!!akz: 3332_-7552_3555_3552_
!!!fot: 'a__b__c__bw_
!!!for: 'a__b__c__bv_
!!!fok: '\__^a_W__^d_
!! PHRAS[VORWIEGEND AUFTAKTIG]
!!!fkt: historische, Kriegs- und Soldatenlieder
!!!bem: Junglinster, hhh Vater des Verfassers, um 1890
!! THILL, Mathias:
!! PR[39] 2K[7] 2G[17] 3K[2] 3G[0] 4A[2] 4Ü[0] 5A[0] 6K[0] 6G[2]
!! 7K[2] 7G[0] 8A[0] MEHR[0] SI[33] ABS[88] SR[24] SP[9]
!! ST[20] 2k[6] 2g[11] 3k[2] 3g[2] 4d[6] 4ü[0] 5d[0] 6k[0] 6g[1]
!! 7k[0] 7g[0] 8d[0] mehr[0] si[28] dm[+5] sr[17] sp[11]
!! 1F[8] 2F[76] 3F[7] 4F[0] LF[0] 2P[0] 3P[9] 4P[0] TRI[0] DF[4] AB[99]
!! TF[0] U3K[0] U3[0] U4[0] U4Ü[0] U5[4] U6K[0] U6[0] U7K[0] U7[2]
!! N1[4] N2K[0] N2[7] N3K[0] N3[36] N4[11] N4Ü[0] N5[15] N6K[0] N6[7]
!!!n7k: 0] N7[4] O1[9] O2K[0] O2[0] O3K[0] O3[0] HÖ[0
